Sources/FrostedUI/Resources/Icons.xcassets/mentionFilled24.imageset/mention-filled-24.svg

<svg width="24" height="24" viewBox="0 0 24 24" fill="none" xmlns="http://www.w3.org/2000/svg" data-fui-icon="true">
  <path
    d="M12 1C18.0751 1 23 5.92487 23 12C23 18.0751 18.0751 23 12 23C5.92487 23 1 18.0751 1 12C1 5.92487 5.92487 1 12 1ZM12.1367 4.73828C11.0167 4.73828 9.99731 4.91269 9.0791 5.26074C8.16591 5.60382 7.37872 6.09837 6.71777 6.74414C6.06185 7.38493 5.55729 8.15186 5.2041 9.04492C4.85092 9.93293 4.67383 10.9247 4.67383 12.0195C4.67388 13.1092 4.85096 14.0984 5.2041 14.9863C5.5623 15.874 6.06889 16.6359 6.72461 17.2715C7.38556 17.9123 8.17549 18.404 9.09375 18.7471C10.012 19.0952 11.0368 19.2695 12.167 19.2695C13.075 19.2695 13.8569 19.1814 14.5127 19.0049C14.9203 18.896 15.2659 18.7937 15.5488 18.6982C15.8051 18.6116 15.9248 18.3271 15.8262 18.0752L15.5449 17.3555C15.4434 17.0966 15.149 16.9691 14.8838 17.0527C14.6593 17.1236 14.3944 17.1995 14.0889 17.2793C13.5289 17.4256 12.8856 17.499 12.1592 17.499C11.0191 17.499 10.0326 17.2741 9.2002 16.8252C8.37272 16.3812 7.73145 15.75 7.27734 14.9326C6.82334 14.1103 6.59671 13.1367 6.59668 12.0117C6.59668 10.8866 6.82324 9.91227 7.27734 9.08984C7.73142 8.26753 8.37462 7.63164 9.20703 7.18262C10.0396 6.73356 11.0267 6.50977 12.167 6.50977C13.2414 6.50983 14.172 6.71628 14.959 7.12988C15.7461 7.53857 16.3543 8.12939 16.7832 8.90137C17.2119 9.66822 17.4268 10.5913 17.4268 11.6709C17.4268 12.4832 17.3001 13.1217 17.0479 13.5859C16.8006 14.0449 16.4574 14.2744 16.0186 14.2744C15.8119 14.2744 15.6484 14.2137 15.5273 14.0928C15.4113 13.9667 15.3526 13.7574 15.3525 13.4648V8.87891C15.3525 8.60276 15.1287 8.37891 14.8525 8.37891H14.123C13.9163 8.37891 13.7482 8.54619 13.748 8.75293V9.12305C13.748 9.12569 13.7458 9.12793 13.7432 9.12793C13.7417 9.12783 13.7401 9.12721 13.7393 9.12598C13.5978 8.87982 13.3463 8.6654 12.9844 8.48438C12.6212 8.29775 12.187 8.20514 11.6826 8.20508C11.0671 8.20508 10.4992 8.35645 9.97949 8.65918C9.45981 8.95687 9.04052 9.38803 8.72266 9.95312C8.40489 10.5182 8.24609 11.2018 8.24609 12.0039C8.24609 12.7406 8.38737 13.402 8.66992 13.9873C8.95246 14.5674 9.35168 15.0263 9.86621 15.3643C10.3807 15.7021 10.9884 15.8711 11.6895 15.8711C12.3 15.8711 12.7926 15.75 13.166 15.5078C13.5378 15.2616 13.7866 14.9776 13.9131 14.6562C13.9138 14.6544 13.916 14.6534 13.918 14.6533C13.9204 14.6533 13.9224 14.6549 13.9229 14.6572C13.9844 14.9584 14.1767 15.2445 14.498 15.5156C14.821 15.7879 15.3129 15.9248 15.9736 15.9248C17.0278 15.9247 17.8502 15.5511 18.4404 14.8047C19.0308 14.0529 19.3262 12.9979 19.3262 11.6406C19.3262 10.2532 19.0289 9.04211 18.4336 8.00781C17.8383 6.97366 17.0004 6.17169 15.9209 5.60156C14.8463 5.02643 13.5846 4.73835 12.1367 4.73828ZM11.8945 9.8623C12.4643 9.86241 12.9005 10.0488 13.2031 10.4219C13.5109 10.7902 13.665 11.3177 13.665 12.0039C13.665 12.6851 13.5109 13.2126 13.2031 13.5859C12.9005 13.954 12.4643 14.1386 11.8945 14.1387C11.3043 14.1387 10.8473 13.9541 10.5244 13.5859C10.2065 13.2176 10.0479 12.6901 10.0479 12.0039C10.0479 11.3177 10.2065 10.7902 10.5244 10.4219C10.8473 10.0487 11.3043 9.8623 11.8945 9.8623Z"
    fill="currentColor"
  />
</svg>

<svg xmlns="http://www.w3.org/2000/svg" width="24" height="24" fill="none" data-fui-icon="true" viewBox="0 0 24 24"><path fill="currentColor" d="M12 1c6.075 0 11 4.925 11 11s-4.925 11-11 11S1 18.075 1 12 5.925 1 12 1m.137 3.738q-1.68 0-3.058.523a6.7 6.7 0 0 0-2.361 1.483 6.5 6.5 0 0 0-1.514 2.3q-.53 1.333-.53 2.976 0 1.635.53 2.966.537 1.332 1.52 2.285.992.962 2.37 1.476 1.377.522 3.073.523 1.362 0 2.346-.265a17 17 0 0 0 1.036-.307.47.47 0 0 0 .277-.623l-.281-.72a.535.535 0 0 0-.661-.302q-.337.105-.795.226-.84.22-1.93.22-1.71 0-2.959-.674a4.7 4.7 0 0 1-1.923-1.892q-.68-1.234-.68-2.921 0-1.688.68-2.922a4.7 4.7 0 0 1 1.93-1.907q1.25-.674 2.96-.673 1.611 0 2.792.62A4.3 4.3 0 0 1 16.783 8.9q.644 1.15.644 2.77 0 1.218-.38 1.915-.37.688-1.028.688-.31 0-.492-.181-.174-.19-.175-.628V8.879a.5.5 0 0 0-.5-.5h-.729a.375.375 0 0 0-.375.374v.37a.01.01 0 0 1-.005.005q-.002 0-.004-.002-.212-.369-.755-.642-.545-.279-1.301-.279-.924 0-1.704.454-.78.447-1.256 1.294-.477.848-.477 2.05 0 1.107.424 1.984.424.87 1.196 1.377t1.824.507q.916 0 1.476-.363.557-.369.747-.852.001-.003.005-.003.003 0 .005.004.092.452.575.859.484.409 1.476.409 1.581 0 2.466-1.12.886-1.128.886-3.164 0-2.082-.892-3.633a6.15 6.15 0 0 0-2.513-2.406q-1.612-.864-3.784-.864m-.242 5.124q.854 0 1.308.56.462.553.462 1.582 0 1.022-.462 1.582-.455.553-1.308.553-.886 0-1.37-.553-.478-.553-.477-1.582 0-1.03.476-1.582.485-.56 1.37-.56"/></svg>
